package/converter/svg/solid/arrows-repeat.svg

<svg xmlns="http://www.w3.org/2000/svg" viewBox="0 0 512 512"><!-- Font Awesome Pro 6.0.0-alpha2 by @fontawesome - https://fontawesome.com License - https://fontawesome.com/license (Commercial License) --><path d="M165.196 160H338.755L297.38 201.375C284.88 213.875 284.88 234.125 297.38 246.625C309.872 259.117 330.122 259.133 342.628 246.625L438.626 150.625C451.126 138.125 451.126 117.875 438.626 105.375L342.628 9.375C330.13 -3.125 309.88 -3.125 297.38 9.375S284.88 42.125 297.38 54.625L338.755 96H165.196C90.87 96 25.153 143.375 1.653 213.875C-3.941 230.656 5.122 248.781 21.903 254.344C25.247 255.469 28.669 256 32.012 256C45.419 256 57.903 247.531 62.37 234.125C77.135 189.781 118.464 160 165.196 160ZM490.098 257.656C486.755 256.531 483.333 256 479.989 256C466.583 256 454.098 264.469 449.63 277.875C434.866 322.219 393.538 352 346.805 352H173.247L214.622 310.625C227.122 298.125 227.122 277.875 214.622 265.375C202.13 252.883 181.88 252.867 169.372 265.375L73.376 361.375C60.876 373.875 60.876 394.125 73.376 406.625L169.372 502.625C181.872 515.125 202.122 515.125 214.622 502.625S227.122 469.875 214.622 457.375L173.247 416H346.805C421.132 416 486.848 368.625 510.348 298.125C515.942 281.344 506.88 263.219 490.098 257.656Z"/></svg>

<svg xmlns="http://www.w3.org/2000/svg" viewBox="0 0 512 512"><!--! Font Awesome Pro 6.6.0 by @fontawesome - https://fontawesome.com License - https://fontawesome.com/license (Commercial License) Copyright 2024 Fonticons, Inc. --><path d="M1.6 213.9c-5.6 16.8 3.5 34.9 20.2 40.5s34.9-3.5 40.5-20.2C77.1 189.9 118.5 160 165.2 160l173.6 0-41.4 41.4c-12.5 12.5-12.5 32.8 0 45.3s32.8 12.5 45.3 0l96-96c12.5-12.5 12.5-32.8 0-45.3l-96-96c-12.5-12.5-32.8-12.5-45.3 0s-12.5 32.8 0 45.3L338.7 96 165.2 96C91 96 25.1 143.5 1.6 213.9zm508.7 84.2c5.6-16.8-3.5-34.9-20.2-40.5s-34.9 3.5-40.5 20.2C434.9 322.1 393.5 352 346.8 352l-173.6 0 41.4-41.4c12.5-12.5 12.5-32.8 0-45.3s-32.8-12.5-45.3 0l-96 96c-12.5 12.5-12.5 32.8 0 45.3l96 96c12.5 12.5 32.8 12.5 45.3 0s12.5-32.8 0-45.3L173.3 416l173.6 0c74.2 0 140.1-47.5 163.6-117.9z"/></svg>
